packages/gestalt-icons-android/vr-theme/ic_vr_apple_gestalt.svg

<svg width="24" height="24" viewBox="0 0 24 24" fill="none" xmlns="http://www.w3.org/2000/svg">
<path d="M21.292 18.7033C20.929 19.5418 20.4994 20.3136 20.0017 21.0232C19.3232 21.9906 18.7676 22.6602 18.3395 23.032C17.6758 23.6424 16.9647 23.955 16.2033 23.9728C15.6566 23.9728 14.9974 23.8172 14.23 23.5017C13.4601 23.1876 12.7525 23.032 12.1056 23.032C11.4271 23.032 10.6994 23.1876 9.92108 23.5017C9.14155 23.8172 8.51356 23.9816 8.03343 23.9979C7.30323 24.0291 6.5754 23.7076 5.84891 23.032C5.38522 22.6276 4.80523 21.9343 4.11044 20.9521C3.36498 19.9032 2.75211 18.687 2.27198 17.3004C1.75777 15.8026 1.5 14.3523 1.5 12.9482C1.5 11.3398 1.84755 9.95259 2.54367 8.79011C3.09077 7.85636 3.8186 7.11979 4.72953 6.57906C5.64047 6.03834 6.62473 5.76279 7.6847 5.74516C8.26468 5.74516 9.02525 5.92456 9.97041 6.27715C10.9129 6.63091 11.5181 6.81032 11.7834 6.81032C11.9818 6.81032 12.654 6.60054 13.7937 6.18233C14.8714 5.79449 15.781 5.63391 16.5262 5.69716C18.5454 5.86012 20.0624 6.6561 21.0713 8.09013C19.2654 9.18432 18.3721 10.7169 18.3899 12.6829C18.4062 14.2142 18.9617 15.4886 20.0535 16.5004C20.5483 16.97 21.1009 17.333 21.7157 17.5907C21.5824 17.9774 21.4416 18.3477 21.292 18.7033ZM16.661 0.480137C16.661 1.68041 16.2225 2.8011 15.3485 3.8384C14.2937 5.07155 13.0179 5.78412 11.6344 5.67168C11.6167 5.52769 11.6065 5.37614 11.6065 5.21688C11.6065 4.06462 12.1081 2.83147 12.9989 1.82321C13.4436 1.3127 14.0093 0.888228 14.6952 0.549615C15.3796 0.216055 16.027 0.031589 16.6358 0C16.6536 0.160458 16.661 0.320941 16.661 0.480137Z" fill="black"/>
</svg>

<svg xmlns="http://www.w3.org/2000/svg" width="24" height="24"><path d="M21.3 18.7q-.55 1.26-1.3 2.32-1.02 1.45-1.66 2.01-1 .91-2.14.94-.81 0-1.97-.47a6 6 0 0 0-2.12-.47q-1.02 0-2.19.47-1.16.48-1.89.5-1.09.04-2.18-.97-.69-.6-1.74-2.08a14 14 0 0 1-1.84-3.65q-.77-2.25-.77-4.35 0-2.42 1.04-4.16a6.1 6.1 0 0 1 5.14-3.04q.87 0 2.29.53 1.41.53 1.81.53.3 0 2.01-.63a7 7 0 0 1 2.74-.48q3.03.24 4.54 2.39a5.1 5.1 0 0 0-2.68 4.6q.03 2.29 1.66 3.81.75.7 1.67 1.1-.2.57-.43 1.1M16.65.48q0 1.8-1.31 3.36c-1.06 1.23-2.33 1.94-3.72 1.83l-.02-.45c0-1.16.5-2.39 1.39-3.4A5 5 0 0 1 14.7.55 5 5 0 0 1 16.64 0z"/></svg>
